X:1
T:Raad for Uraad
T:Forsvars-sang
T:Peter Lindeman
T:Jacob B. Bull
C:L. M. Lindeman
%%score [ 1 2 3 4 ]
L:1/8
Q:1/4=60
M:4/4
K:F
V:1 treble-8 nm="Tenor"
V:2 treble-8 nm="Tenor"
V:3 bass nm="Baryton"
V:4 bass nm="Bass"
V:1
!f!"^Bestemt" f3 e d2 d2 |!>(! c3 B!>)! A4 |!<(! A3 f!<)! f2 e2 |!>(! d4 c4!>)! |!f! f3 e d2 d2 | %5
w: Gam- le Nor- ge,|elsk- te land,|bed- ste ven i|ver- den,|for din fred vi|
 c3!>(! B A4!>)! |!<(! A3 f!<)! f2 e2 | d4 c2!p! G[Q:1/4=68]"^Piu mosso" A | B2!<(! d2 d2!<)! g2 | %9
w: mand ved mand|gaar til le- ding-|fær- den. For at|vær- ne vækst og|
 f2!>(! _e d!>)! c2 c2 | d6!mf! A B |!<(! c2 f2!<)! f2 a2 | g4!ff! c2[Q:1/4=40]"^Pesante" c2 | %13
w: vaar i et fat- tigt|hjem rundt om|land der hær skrig|gaar; "Nord- mænd|
 f6 z2 |] %14
w: frem!"|
V:2
!f! c3 c d2 B2 |!>(! c3 G!>)! A4 |!<(! A3 d!<)! d2 c2 |!>(! =B4 G4!>)! |!f! A3 c B2 B2 | %5
w: Gam- le Nor- ge,|elsk- te land,|bed- ste ven i|ver- den,|for din fred vi|
 G3!>(! G F4!>)! |!<(! A3 d!<)! d2 c2 | =B4 G2!p! G G | G2!<(! B2 d2!<)! ^c2 | %9
w: mand ved mand|gaar til le- ding-|fær- den. For at|vær- ne vækst og|
 d2!>(! =c B!>)! B2 A2 | A6!mf! F G |!<(! A2 c2!<)! d2 f2 | f4!ff! B2 B2 | A6 z2 |] %14
w: vaar i et fat- tigt|hjem rundt om|land der hær skrig|gaar; "Nord- mænd|frem!"|
V:3
!f! A,3 C B,2 B,2 |!>(! G,3 E,!>)! F,4 |!<(! F,3 A,!<)! G,2 G,2 |!>(! F,4 E,4!>)! | %4
w: Gam- le Nor- ge,|elsk- te land,|bed- ste ven i|ver- den,|
!f! C,3 F, F,2 (G,F,) | E,3!>(! E, C,4!>)! |!<(! F,3 A,!<)! G,2 G,2 | (G,2 F,2) E,2!p! E, E, | %8
w: for din fred vi _|mand ved mand|gaar til le- ding-|fær- * den. For at|
 D,2!<(! G,2 B,2!<)! B,2 | B,2!>(! F, F,!>)! G,2 G,2 | ^F,6!mf! =F, F, |!<(! F,2 A,2!<)! A,2 D2 | %12
w: vær- ne vækst og|vaar i et fat- tigt|hjem rundt om|land der hær skrig|
 D4!ff! E,2 E,2 | C,6 z2 |] %14
w: gaar; "Nord- mænd|frem!"|
V:4
!f! F,3 A, B,2 G,2 |!>(! E,3 C,!>)! F,4 |!<(! D,3 D,!<)! =B,,2 C,2 |!>(! G,,4 C,4!>)! | %4
w: Gam- le Nor- ge,|elsk- te land,|bed- ste ven i|ver- den,|
!f! F,,3 A,, B,,2 G,,2 | C,3!>(! C, F,,4!>)! |!<(! D,3 C,!<)! =B,,2 C,2 | G,4 C,2!p! C, C, | %8
w: for din fred vi|mand ved mand|gaar til le- ding-|fær- den. For at|
 G,,2!<(! G,,2 G,2!<)! _E,2 | B,,2!>(! A,, B,,!>)! _E,2 E,2 | D,6!mf! D, D, | %11
w: vær- ne vækst og|vaar i et fat- tigt|hjem rundt om|
!<(! C,2 A,,2!<)! D,2 C,2 | %12
w: land der hær skrig|
"_Først paa post som grænsevagt Vikens fylking flommer;\nfjernt gaar døn i høifjeldstrakt: Østerdalen kommer.\nOg fra grænsen langt mod nord som i gammel tid\ntordner Trøndelagens ord: \"Her staar vi!\"\n\nOg fra hav der vester fra fraader flag rundt kysten.\nTusen seil, ja fler endda, stævner frem til dysten.\nÆldste lods og yngste gast knuger haand om rat,\nmelder kort og uveirskvast: \"Vagt er sat!\"\n\nHelt fra Kap til Jæderens skjær dybt i øde skogen\nblaaner vagtblus fjernt og nær, efterglemt staar plogen.\nLangs de mørke fjelde hen over bygd og by\nstiger vrede rop af mænd, vaabengny.\n\nNorges kvinde høi og harm staar forladt og lytter,\ndier barn av sliten barm i de slukte hytter.\nLider nød foruden ord, sorg foruden graad.\nHøi den gror i fattig jord, savnets daad.\n\nGjerne dø, naar blot der gaar sol om fjeld her hjemme,\nog naar sidste røst, os naar, er vor moders stemme.\nKrænker nogen hjemmets jord, alle mand gaa paa!\nKræves vagt for gamle Nor, vi skal staa." B,,4!ff! C,2 C,2 | %13
w: gaar; "Nord- mænd|
 F,,6 z2 |] %14
w: frem!"|

